frontend/public/svg/currency/dollar.svg

<svg width="163" height="160" viewBox="0 0 163 160" fill="none" xmlns="http://www.w3.org/2000/svg">
<g clip-path="url(#clip0)">
<path d="M75.0898 37.8088C75.0898 34.6413 75.0767 31.5079 75.0977 28.3739C75.0104 27.5924 75.0891 26.8011 75.3281 26.0518C75.7146 25.2642 76.3985 24.2666 77.1336 24.0828C78.4765 23.7487 79.1512 24.8461 79.2425 26.0912C79.3901 28.1029 79.4466 30.1231 79.4906 32.1406C79.5299 33.9128 79.4984 35.6849 79.4984 38.0201C81.0257 37.9341 82.5563 37.9444 84.0823 38.051C87.618 38.536 91.1707 39.0224 94.6369 39.8303C96.0421 40.2143 97.2865 41.0416 98.1844 42.1892C98.779 42.9656 98.7823 44.5271 98.4377 45.528C98.2959 45.9408 96.5094 46.0425 95.5433 45.8719C91.9255 45.2333 88.3511 44.3453 84.7321 43.7171C83.3367 43.4749 81.8645 43.6778 79.8437 43.6778C80.1718 53.3259 80.4882 62.5632 80.8131 72.0722C82.9396 72.3637 85.0484 72.7686 87.131 73.2858C91.4031 74.5781 95.8741 75.5718 99.7944 77.5973C108.149 81.9127 111.568 89.4114 111.003 98.5515C110.203 111.467 101.612 119.985 88.636 121.233C86.8678 121.403 85.0924 121.522 83.4456 121.655C83.4456 126.167 83.4909 130.402 83.422 134.635C83.422 136.195 83.2422 137.75 82.8871 139.269C82.4447 141.021 81.2463 142.264 79.312 142.312C77.194 142.365 75.9306 140.98 75.4718 139.146C75.1082 137.396 74.9448 135.612 74.9848 133.825C74.9192 129.697 74.9651 125.568 74.9651 121.26C69.3626 120.32 63.8448 119.428 58.3407 118.454C56.3501 118.117 54.382 117.657 52.4484 117.076C49.8349 116.268 48.6015 114.587 49.0635 112.814C49.517 111.072 50.931 110.487 53.8156 110.901C59.4772 111.713 65.1328 112.565 70.7974 113.356C72.0976 113.537 73.4234 113.539 74.8056 113.628V77.7391C71.4005 77.1188 68.2344 76.8465 65.2739 75.9204C62.0001 74.8958 58.6082 73.7216 55.8096 71.8169C50.0824 67.9202 48.2616 61.2683 50.8915 54.8316C54.5874 45.7813 61.5569 40.6842 71.0776 38.9193C72.0693 38.7355 73.0624 38.5504 74.0489 38.3411C74.4105 38.195 74.759 38.0169 75.0898 37.8088ZM82.828 114.198C88.8073 114.039 94.1774 113.213 98.7882 109.795C106.92 103.761 106.885 89.6674 98.7121 83.9881C93.5992 80.4346 87.6771 79.3281 81.625 78.5273C81.4766 78.9165 81.3742 79.3222 81.3211 79.7356C81.8055 91.0516 82.3062 102.368 82.828 114.197V114.198ZM74.5149 44.6262C66.4596 45.6199 60.3671 49.1962 56.8537 56.4914C54.613 61.1449 55.9969 65.4367 60.5046 67.9774C64.7708 70.3815 69.5011 71.0195 74.5149 71.3326V44.6262Z" fill="black"/>
<path d="M161.218 73.216C159.371 57.0098 152.865 41.6866 142.489 29.1014C133.937 18.6079 124.737 11.1283 114.365 6.24513C106.271 2.3457 97.4042 0.31527 88.4202 0.303955C85.6597 0.308129 82.9024 0.488346 80.1655 0.843479C68.7741 2.32024 57.2272 5.62489 43.8399 11.2497C25.7315 18.8632 13.1233 31.948 6.37542 50.1305C1.64209 62.6163 -0.182132 76.0173 1.0414 89.314C2.46433 104.252 6.05874 115.83 12.3511 125.741C21.4427 140.046 32.8941 149.467 47.3677 154.532C56.1416 157.607 65.7996 159.152 77.7502 159.395C84.7841 159.395 91.3337 158.545 97.6667 157.722L98.8672 157.567C112.693 155.78 124.434 150.789 134.768 142.325C144.485 134.511 151.841 124.151 156.013 112.401C160.961 98.3656 162.661 85.5447 161.218 73.216ZM144.894 117.775C137.071 133.617 123.913 144.011 105.771 148.664C103.592 149.224 101.34 149.629 98.9591 150.053C97.7776 150.262 96.5437 150.485 95.2488 150.735C89.6043 151.584 81.9908 151.713 77.7948 151.713C75.9268 151.713 74.7336 151.686 74.7001 151.686C63.6794 151.551 54.1971 149.683 45.7192 145.966C34.4229 141.016 25.3925 132.66 18.1216 120.426C13.7314 113.048 10.9461 104.314 9.36099 92.9429C7.32759 78.4792 9.10568 63.7356 14.52 50.1705C20.219 35.718 30.4691 24.7519 44.984 17.5827C48.3359 15.9235 61.9597 11.931 65.5407 11.2025C70.5836 10.1962 75.6958 9.58071 80.833 9.36142C101.153 8.87573 109.179 12.1463 121.588 21.6225C134.584 31.543 143.744 44.0134 148.816 58.6819C155.708 78.6656 154.393 98.5474 144.894 117.775Z" fill="black"/>
</g>
<defs>
<clipPath id="clip0">
<rect width="161.459" height="159.49" fill="white" transform="translate(0.56543 0.13501)"/>
</clipPath>
</defs>
</svg>

<svg xmlns="http://www.w3.org/2000/svg" width="163" height="160" fill="none" viewBox="0 0 163 160"><g fill="#000" clip-path="url(#a)"><path d="M75.09 37.809c0-3.168-.013-6.301.008-9.435a5.6 5.6 0 0 1 .23-2.322c.387-.788 1.07-1.785 1.806-1.97 1.343-.333 2.017.764 2.109 2.01.147 2.01.204 4.031.248 6.049.039 1.772.007 3.544.007 5.88a36 36 0 0 1 4.584.03c3.536.485 7.089.971 10.555 1.78a6.77 6.77 0 0 1 3.547 2.358c.595.777.598 2.338.254 3.339-.142.413-1.929.514-2.895.344-3.618-.639-7.192-1.527-10.81-2.155-1.396-.242-2.868-.04-4.89-.04l.97 28.395q3.192.438 6.318 1.214c4.272 1.292 8.743 2.286 12.663 4.311 8.355 4.316 11.774 11.814 11.209 20.955-.8 12.915-9.391 21.433-22.367 22.681-1.768.17-3.544.289-5.19.422 0 4.512.045 8.747-.024 12.98 0 1.56-.18 3.115-.535 4.634-.442 1.752-1.64 2.995-3.575 3.043-2.118.053-3.381-1.332-3.84-3.166a23.6 23.6 0 0 1-.487-5.321c-.066-4.128-.02-8.257-.02-12.565-5.602-.94-11.12-1.832-16.624-2.806a49 49 0 0 1-5.893-1.378c-2.613-.808-3.846-2.489-3.385-4.262.454-1.742 1.868-2.327 4.753-1.913 5.661.812 11.317 1.664 16.981 2.455 1.3.181 2.626.183 4.009.272V77.739c-3.406-.62-6.572-.892-9.532-1.819-3.274-1.024-6.666-2.198-9.464-4.103-5.728-3.897-7.548-10.549-4.919-16.985 3.696-9.05 10.666-14.148 20.187-15.913.991-.183 1.984-.369 2.97-.578q.544-.22 1.042-.532m7.738 76.389c5.98-.159 11.35-.985 15.96-4.403 8.132-6.034 8.097-20.128-.076-25.807-5.113-3.553-11.035-4.66-17.087-5.46-.148.388-.25.794-.304 1.208.484 11.316.985 22.632 1.507 34.461zm-8.313-69.572c-8.055.994-14.148 4.57-17.661 11.865-2.241 4.654-.857 8.946 3.65 11.486 4.267 2.404 8.997 3.042 14.01 3.356z"/><path d="M161.218 73.216a84.37 84.37 0 0 0-18.729-44.115c-8.552-10.493-17.752-17.973-28.124-22.856A59.95 59.95 0 0 0 88.42.304c-2.76.004-5.518.184-8.255.54C68.776 2.32 57.227 5.623 43.84 11.25 25.73 18.863 13.123 31.948 6.375 50.13a87.8 87.8 0 0 0-5.334 39.184c1.423 14.938 5.018 26.516 11.31 36.427 9.092 14.305 20.543 23.726 35.017 28.791 8.774 3.075 18.432 4.62 30.382 4.863 7.034 0 13.584-.85 19.917-1.673l1.2-.155c13.826-1.787 25.567-6.778 35.901-15.242a67.3 67.3 0 0 0 21.245-29.924c4.948-14.035 6.648-26.856 5.205-39.185m-16.324 44.559c-7.823 15.842-20.981 26.236-39.123 30.889-2.179.56-4.431.965-6.812 1.389a241 241 0 0 0-3.71.682c-5.645.849-13.258.978-17.454.978-1.868 0-3.061-.027-3.095-.027-11.02-.135-20.503-2.003-28.98-5.72-11.297-4.95-20.327-13.306-27.598-25.54-4.39-7.378-7.176-16.112-8.761-27.483A83.9 83.9 0 0 1 14.52 50.17c5.699-14.453 15.95-25.42 30.464-32.588 3.352-1.66 16.976-5.652 20.557-6.38A100 100 0 0 1 80.833 9.36c20.32-.485 28.346 2.785 40.755 12.261 12.996 9.921 22.156 22.391 27.228 37.06 6.892 19.984 5.577 39.865-3.922 59.093"/></g><defs><clipPath id="a"><path fill="#fff" d="M.565.135h161.46v159.49H.564z"/></clipPath></defs></svg>
